;FLAVOR:Marlin
;TIME:10175
;Filament used: 5.95391m
;Layer height: 0.1
;MINX:64.7
;MINY:64.7
;MINZ:0.3
;MAXX:155.3
;MAXY:155.3
;MAXZ:10
;Generated with Cura_SteamEngine 4.8.0
M140 S60
M105
M190 S60
M104 S200
M105
M109 S200
M82 ;absolute extrusion mode
G28 ;Home
G1 Z15.0 F6000 ;Move the platform down 15mm
;Prime the extruder
G92 E0
G1 F200 E3
G92 E0
G92 E0
G92 E0
G1 F1500 E-6.5
;LAYER_COUNT:98
;LAYER:0
M107
G0 F3600 X67.123 Y66.849 Z0.3
;TYPE:SKIRT
G1 F1500 E0
G1 F1800 X67.722 Y66.334 E0.03941
G1 X68.37 Y65.883 E0.0788
G1 X69.061 Y65.499 E0.11824
G1 X69.786 Y65.187 E0.15762
G1 X70.539 Y64.95 E0.197
G1 X71.313 Y64.791 E0.23642
G1 X72.098 Y64.71 E0.27579
G1 X72.5 Y64.7 E0.29586
G1 X147.5 Y64.7 E4.03762
G1 X148.289 Y64.74 E4.07703
G1 X149.069 Y64.859 E4.1164
G1 X149.834 Y65.057 E4.15582
G1 X150.574 Y65.331 E4.19519
G1 X151.283 Y65.679 E4.23459
G1 X151.954 Y66.097 E4.27404
G1 X152.578 Y66.58 E4.3134
G1 X153.151 Y67.123 E4.35279
G1 X153.666 Y67.722 E4.3922
G1 X154.117 Y68.37 E4.43159
G1 X154.501 Y69.061 E4.47103
G1 X154.813 Y69.786 E4.5104
G1 X155.05 Y70.539 E4.54979
G1 X155.209 Y71.313 E4.58921
G1 X155.29 Y72.098 E4.62858
G1 X155.3 Y72.5 E4.64864
G1 X155.3 Y147.5 E8.39041
G1 X155.26 Y148.289 E8.42982
G1 X155.141 Y149.069 E8.46919
G1 X154.943 Y149.834 E8.50861
G1 X154.669 Y150.574 E8.54798
G1 X154.321 Y151.283 E8.58738
G1 X153.903 Y151.954 E8.62682
G1 X153.42 Y152.578 E8.66619
G1 X152.877 Y153.151 E8.70557
G1 X152.278 Y153.666 E8.74499
G1 X151.63 Y154.117 E8.78437
G1 X150.939 Y154.501 E8.82381
G1 X150.214 Y154.813 E8.86319
G1 X149.461 Y155.05 E8.90257
G1 X148.687 Y155.209 E8.942
G1 X147.902 Y155.29 E8.98137
G1 X147.5 Y155.3 E9.00143
G1 X114.5 Y155.3 E10.64781
G1 X113.711 Y155.26 E10.68722
G1 X112.931 Y155.141 E10.72659
G1 X112.166 Y154.943 E10.76601
G1 X111.426 Y154.669 E10.80538
G1 X110.717 Y154.321 E10.84478
G1 X110.046 Y153.903 E10.88422
G1 X109.422 Y153.42 E10.92359
G1 X108.849 Y152.877 E10.96297
G1 X108.334 Y152.278 E11.00238
G1 X107.883 Y151.63 E11.04177
G1 X107.499 Y150.939 E11.08121
G1 X107.187 Y150.214 E11.12059
G1 X106.95 Y149.461 E11.15997
G1 X106.791 Y148.687 E11.19939
G1 X106.751 Y148.3 E11.21881
G1 X90.258 Y148.3 E12.04164
G1 X90.141 Y149.069 E12.08045
G1 X89.943 Y149.834 E12.11988
G1 X89.669 Y150.574 E12.15924
G1 X89.321 Y151.283 E12.19865
G1 X88.903 Y151.954 E12.23809
G1 X88.42 Y152.578 E12.27746
G1 X87.877 Y153.151 E12.31684
G1 X87.278 Y153.666 E12.35625
G1 X86.63 Y154.117 E12.39564
G1 X85.939 Y154.501 E12.43508
G1 X85.214 Y154.813 E12.47446
G1 X84.461 Y155.05 E12.51384
G1 X83.687 Y155.209 E12.55326
G1 X82.902 Y155.29 E12.59263
G1 X82.5 Y155.3 E12.61269
G1 X72.5 Y155.3 E13.1116
G1 X71.711 Y155.26 E13.15101
G1 X70.931 Y155.141 E13.19038
G1 X70.166 Y154.943 E13.2298
G1 X69.426 Y154.669 E13.26917
G1 X68.717 Y154.321 E13.30857
G1 X68.046 Y153.903 E13.34801
G1 X67.422 Y153.42 E13.38738
G1 X66.849 Y152.877 E13.42676
G1 X66.334 Y152.278 E13.46617
G1 X65.883 Y151.63 E13.50556
G1 X65.499 Y150.939 E13.545
G1 X65.187 Y150.214 E13.58438
G1 X64.95 Y149.461 E13.62376
G1 X64.791 Y148.687 E13.66319
G1 X64.71 Y147.902 E13.70256
G1 X64.7 Y147.5 E13.72262
G1 X64.7 Y72.5 E17.46438
G1 X64.74 Y71.711 E17.5038
G1 X64.859 Y70.931 E17.54316
G1 X65.057 Y70.166 E17.58259
G1 X65.331 Y69.426 E17.62195
G1 X65.679 Y68.717 E17.66136
G1 X66.097 Y68.046 E17.7008
G1 X66.58 Y67.422 E17.74017
G1 X67.123 Y66.849 E17.77955
G0 F3600 X67.516 Y67.03
G1 F1800 X68.111 Y66.542 E17.81794
G1 X68.753 Y66.119 E17.8563
G1 X69.436 Y65.764 E17.8947
G1 X70.151 Y65.483 E17.93303
G1 X70.893 Y65.277 E17.97145
G1 X71.651 Y65.149 E18.0098
G1 X72.5 Y65.1 E18.05223
G1 X147.5 Y65.1 E21.79399
G1 X148.268 Y65.14 E21.83236
G1 X149.028 Y65.259 E21.87074
G1 X149.771 Y65.457 E21.9091
G1 X150.49 Y65.731 E21.94749
G1 X151.176 Y66.078 E21.98584
G1 X151.823 Y66.494 E22.02422
G1 X152.423 Y66.975 E22.06258
G1 X152.97 Y67.516 E22.10097
G1 X153.458 Y68.111 E22.13936
G1 X153.881 Y68.753 E22.17771
G1 X154.236 Y69.436 E22.21612
G1 X154.517 Y70.151 E22.25445
G1 X154.723 Y70.893 E22.29286
G1 X154.851 Y71.651 E22.33122
G1 X154.9 Y72.5 E22.37364
G1 X154.9 Y147.5 E26.11541
G1 X154.86 Y148.268 E26.15378
G1 X154.741 Y149.028 E26.19215
G1 X154.543 Y149.771 E26.23052
G1 X154.269 Y150.49 E26.2689
G1 X153.922 Y151.176 E26.30726
G1 X153.506 Y151.823 E26.34563
G1 X153.025 Y152.423 E26.384
G1 X152.484 Y152.97 E26.42238
G1 X151.889 Y153.458 E26.46077
G1 X151.247 Y153.881 E26.49913
G1 X150.564 Y154.236 E26.53753
G1 X149.849 Y154.517 E26.57586
G1 X149.107 Y154.723 E26.61428
G1 X148.349 Y154.851 E26.65263
G1 X147.5 Y154.9 E26.69506
G1 X114.5 Y154.9 E28.34144
G1 X113.732 Y154.86 E28.3798
G1 X112.972 Y154.741 E28.41818
G1 X112.229 Y154.543 E28.45654
G1 X111.51 Y154.269 E28.49493
G1 X110.824 Y153.922 E28.53329
G1 X110.177 Y153.506 E28.57166
G1 X109.577 Y153.025 E28.61003
G1 X109.03 Y152.484 E28.64841
G1 X108.542 Y151.889 E28.6868
G1 X108.119 Y151.247 E28.72516
G1 X107.764 Y150.564 E28.76356
G1 X107.483 Y149.849 E28.80189
G1 X107.277 Y149.107 E28.84031
G1 X107.149 Y148.349 E28.87866
G1 X107.123 Y147.9 E28.9011
G1 X89.879 Y147.9 E29.7614
G1 X89.86 Y148.268 E29.77979
G1 X89.741 Y149.028 E29.81817
G1 X89.543 Y149.771 E29.85653
G1 X89.269 Y150.49 E29.89492
G1 X88.922 Y151.176 E29.93327
G1 X88.506 Y151.823 E29.97165
G1 X88.025 Y152.423 E30.01001
G1 X87.484 Y152.97 E30.04839
G1 X86.889 Y153.458 E30.08679
G1 X86.247 Y153.881 E30.12514
G1 X85.564 Y154.236 E30.16355
G1 X84.849 Y154.517 E30.20187
G1 X84.107 Y154.723 E30.24029
G1 X83.349 Y154.851 E30.27864
G1 X82.5 Y154.9 E30.32107
G1 X72.5 Y154.9 E30.81997
G1 X71.732 Y154.86 E30.85834
G1 X70.972 Y154.741 E30.89672
G1 X70.229 Y154.543 E30.93508
G1 X69.51 Y154.269 E30.97347
G1 X68.824 Y153.922 E31.01182
G1 X68.177 Y153.506 E31.0502
G1 X67.577 Y153.025 E31.08856
G1 X67.03 Y152.484 E31.12695
G1 X66.542 Y151.889 E31.16534
G1 X66.119 Y151.247 E31.2037
G1 X65.764 Y150.564 E31.2421
G1 X65.483 Y149.849 E31.28043
G1 X65.277 Y149.107 E31.31884
G1 X65.149 Y148.349 E31.3572
G1 X65.1 Y147.5 E31.39962
G1 X65.1 Y72.5 E35.14139
G1 X65.14 Y71.732 E35.17976
G1 X65.259 Y70.972 E35.21814
G1 X65.457 Y70.229 E35.2565
G1 X65.731 Y69.51 E35.29488
G1 X66.078 Y68.824 E35.33324
G1 X66.494 Y68.177 E35.37161
G1 X66.975 Y67.577 E35.40998
G1 X67.516 Y67.03 E35.44836
G0 F3600 X67.908 Y67.216
G1 F1800 X68.498 Y66.757 E35.48566
G1 X69.134 Y66.362 E35.52301
G1 X69.808 Y66.038 E35.56032
G1 X70.513 Y65.788 E35.59764
G1 X71.241 Y65.614 E35.63498
G1 X71.983 Y65.519 E35.6723
G1 X72.5 Y65.5 E35.69811
G1 X147.5 Y65.5 E39.43988
G1 X148.247 Y65.54 E39.4772
G1 X148.985 Y65.659 E39.51449
G1 X149.707 Y65.857 E39.55184
G1 X150.403 Y66.13 E39.58914
G1 X151.066 Y66.477 E39.62648
G1 X151.689 Y66.892 E39.66382
G1 X152.263 Y67.371 E39.70112
G1 X152.784 Y67.908 E39.73845
G1 X153.243 Y68.498 E39.77574
G1 X153.638 Y69.134 E39.81309
G1 X153.962 Y69.808 E39.8504
G1 X154.212 Y70.513 E39.88772
G1 X154.386 Y71.241 E39.92506
G1 X154.481 Y71.983 E39.96238
G1 X154.5 Y72.5 E39.9882
G1 X154.5 Y147.5 E43.72996
G1 X154.46 Y148.247 E43.76728
G1 X154.341 Y148.985 E43.80458
G1 X154.143 Y149.707 E43.84193
G1 X153.87 Y150.403 E43.87923
G1 X153.523 Y151.066 E43.91656
G1 X153.108 Y151.689 E43.95391
G1 X152.629 Y152.263 E43.9912
G1 X152.092 Y152.784 E44.02853
G1 X151.502 Y153.243 E44.06583
G1 X150.866 Y153.638 E44.10318
G1 X150.192 Y153.962 E44.14049
G1 X149.487 Y154.212 E44.17781
G1 X148.759 Y154.386 E44.21515
G1 X148.017 Y154.481 E44.25247
G1 X147.5 Y154.5 E44.27828
G1 X114.5 Y154.5 E45.92466
G1 X113.753 Y154.46 E45.96198
G1 X113.015 Y154.341 E45.99927
G1 X112.293 Y154.143 E46.03662
G1 X111.597 Y153.87 E46.07392
G1 X110.934 Y153.523 E46.11126
G1 X110.311 Y153.108 E46.1486
G1 X109.737 Y152.629 E46.1859
G1 X109.216 Y152.092 E46.22323
G1 X108.757 Y151.502 E46.26052
G1 X108.362 Y150.866 E46.29788
G1 X108.038 Y150.192 E46.33518
G1 X107.788 Y149.487 E46.3725
G1 X107.614 Y148.759 E46.40985
G1 X107.519 Y148.017 E46.44717
G1 X107.5 Y147.5 E46.47298
G1 X89.5 Y147.5 E47.371
G1 X89.46 Y148.247 E47.40832
G1 X89.341 Y148.985 E47.44562
G1 X89.143 Y149.707 E47.48297
G1 X88.87 Y150.403 E47.52027
G1 X88.523 Y151.066 E47.5576
G1 X88.108 Y151.689 E47.59495
G1 X87.629 Y152.263 E47.63225
G1 X87.092 Y152.784 E47.66957
G1 X86.502 Y153.243 E47.70687
G1 X85.866 Y153.638 E47.74422
G1 X85.192 Y153.962 E47.78153
G1 X84.487 Y154.212 E47.81885
G1 X83.759 Y154.386 E47.85619
G1 X83.017 Y154.481 E47.89351
G1 X82.5 Y154.5 E47.91932
G1 X72.5 Y154.5 E48.41822
G1 X71.753 Y154.46 E48.45554
G1 X71.015 Y154.341 E48.49284
G1 X70.293 Y154.143 E48.53019
G1 X69.597 Y153.87 E48.56749
G1 X68.934 Y153.523 E48.60482
G1 X68.311 Y153.108 E48.64217
G1 X67.737 Y152.629 E48.67947
G1 X67.216 Y152.092 E48.7168
G1 X66.757 Y151.502 E48.75409
G1 X66.362 Y150.866 E48.79144
G1 X66.038 Y150.192 E48.82875
G1 X65.788 Y149.487 E48.86607
G1 X65.614 Y148.759 E48.90341
G1 X65.519 Y148.017 E48.94073
G1 X65.5 Y147.5 E48.96654
G1 X65.5 Y72.5 E52.70831
G1 X65.54 Y71.753 E52.74563
G1 X65.659 Y71.015 E52.78292
G1 X65.857 Y70.293 E52.82028
G1 X66.13 Y69.597 E52.85757
G1 X66.477 Y68.934 E52.89491
G1 X66.892 Y68.311 E52.93225
G1 X67.371 Y67.737 E52.96955
G1 X67.908 Y67.216 E53.00688
G0 F3600 X67.765 Y67.902
G1 F1800 X68.299 Y67.409 E53.04314
G1 X68.884 Y66.979 E53.07936
G1 X69.513 Y66.615 E53.11562
G1 X70.178 Y66.322 E53.15187
G1 X70.871 Y66.104 E53.18812
G1 X71.583 Y65.964 E53.22432
G1 X72.5 Y65.9 E53.27018
G1 X147.5 Y65.9 E57.01195
G1 X148.225 Y65.94 E57.04817
G1 X148.942 Y66.059 E57.08443
G1 X149.641 Y66.257 E57.12068
G1 X150.314 Y66.53 E57.15691
G1 X150.953 Y66.875 E57.19314
G1 X151.55 Y67.289 E57.22938
G1 X152.098 Y67.765 E57.2656
G1 X152.591 Y68.299 E57.30186
G1 X153.021 Y68.884 E57.33808
G1 X153.385 Y69.513 E57.37434
G1 X153.678 Y70.178 E57.41059
G1 X153.896 Y70.871 E57.44683
G1 X154.036 Y71.583 E57.48304
G1 X154.1 Y72.5 E57.5289
G1 X154.1 Y147.5 E61.27066
G1 X154.06 Y148.225 E61.30689
G1 X153.941 Y148.942 E61.34315
G1 X153.743 Y149.641 E61.37939
G1 X153.47 Y150.314 E61.41563
G1 X153.125 Y150.953 E61.45186
G1 X152.711 Y151.55 E61.4881
G1 X152.235 Y152.098 E61.52432
G1 X151.701 Y152.591 E61.56057
G1 X151.116 Y153.021 E61.5968
G1 X150.487 Y153.385 E61.63305
G1 X149.822 Y153.678 E61.66931
G1 X149.129 Y153.896 E61.70555
G1 X148.417 Y154.036 E61.74175
G1 X147.5 Y154.1 E61.78761
G1 X114.5 Y154.1 E63.43399
G1 X113.775 Y154.06 E63.47022
G1 X113.058 Y153.941 E63.50648
G1 X112.359 Y153.743 E63.54272
G1 X111.686 Y153.47 E63.57896
G1 X111.047 Y153.125 E63.61519
G1 X110.45 Y152.711 E63.65143
G1 X109.902 Y152.235 E63.68764
G1 X109.409 Y151.701 E63.7239
G1 X108.979 Y151.116 E63.76013
G1 X108.615 Y150.487 E63.79638
G1 X108.322 Y149.822 E63.83264
G1 X108.104 Y149.129 E63.86888
G1 X107.964 Y148.417 E63.90508
G1 X107.9 Y147.5 E63.95094
G1 X107.9 Y147.1 E63.9709
G1 X89.1 Y147.1 E64.90884
G1 X89.1 Y147.5 E64.92879
G1 X89.06 Y148.225 E64.96502
G1 X88.941 Y148.942 E65.00128
G1 X88.743 Y149.641 E65.03752
G1 X88.47 Y150.314 E65.07376
G1 X88.125 Y150.953 E65.10999
G1 X87.711 Y151.55 E65.14623
G1 X87.235 Y152.098 E65.18245
G1 X86.701 Y152.591 E65.2187
G1 X86.116 Y153.021 E65.25493
G1 X85.487 Y153.385 E65.29118
G1 X84.822 Y153.678 E65.32744
G1 X84.129 Y153.896 E65.36368
G1 X83.417 Y154.036 E65.39988
G1 X82.5 Y154.1 E65.44574
G1 X72.5 Y154.1 E65.94465
G1 X71.775 Y154.06 E65.98087
G1 X71.058 Y153.941 E66.01713
G1 X70.359 Y153.743 E66.05338
G1 X69.686 Y153.47 E66.08961
G1 X69.047 Y153.125 E66.12584
G1 X68.45 Y152.711 E66.16209
G1 X67.902 Y152.235 E66.1983
G1 X67.409 Y151.701 E66.23456
G1 X66.979 Y151.116 E66.27078
G1 X66.615 Y150.487 E66.30704
G1 X66.322 Y149.822 E66.34329
G1 X66.104 Y149.129 E66.37954
G1 X65.964 Y148.417 E66.41574
G1 X65.9 Y147.5 E66.4616
G1 X65.9 Y72.5 E70.20336
G1 X65.94 Y71.775 E70.23959
G1 X66.059 Y71.058 E70.27585
G1 X66.257 Y70.359 E70.3121
G1 X66.53 Y69.686 E70.34833
G1 X66.875 Y69.047 E70.38456
G1 X67.289 Y68.45 E70.4208
G1 X67.765 Y67.902 E70.45702
G0 F3600 X68.159 Y68.073
G1 F1800 X68.689 Y67.609 E70.49216
G1 X69.268 Y67.209 E70.52727
G1 X69.889 Y66.877 E70.5624
G1 X70.543 Y66.617 E70.59751
G1 X71.223 Y66.433 E70.63266
G1 X71.919 Y66.327 E70.66778
G1 X72.5 Y66.3 E70.6968
G1 X147.5 Y66.3 E74.43857
G1 X148.203 Y66.34 E74.47369
G1 X148.897 Y66.459 E74.50882
G1 X149.572 Y66.657 E74.54392
G1 X150.221 Y66.929 E74.57903
G1 X150.835 Y67.274 E74.61416
G1 X151.406 Y67.685 E74.64926
G1 X151.927 Y68.159 E74.6844
G1 X152.391 Y68.689 E74.71955
G1 X152.791 Y69.268 E74.75466
G1 X153.123 Y69.889 E74.78979
G1 X153.383 Y70.543 E74.8249
G1 X153.567 Y71.223 E74.86004
G1 X153.673 Y71.919 E74.89517
G1 X153.7 Y72.5 E74.92419
G1 X153.7 Y147.5 E78.66595
G1 X153.66 Y148.203 E78.70108
G1 X153.541 Y148.897 E78.73621
G1 X153.343 Y149.572 E78.7713
G1 X153.071 Y150.221 E78.80641
G1 X152.726 Y150.835 E78.84155
G1 X152.315 Y151.406 E78.87665
G1 X151.841 Y151.927 E78.91179
G1 X151.311 Y152.391 E78.94693
G1 X150.732 Y152.791 E78.98204
G1 X150.111 Y153.123 E79.01717
G1 X149.457 Y153.383 E79.05229
G1 X148.777 Y153.567 E79.08743
G1 X148.081 Y153.673 E79.12255
G1 X147.5 Y153.7 E79.15157
G1 X114.5 Y153.7 E80.79795
G1 X113.797 Y153.66 E80.83308
G1 X113.103 Y153.541 E80.86821
G1 X112.428 Y153.343 E80.9033
G1 X111.779 Y153.071 E80.93841
G1 X111.165 Y152.726 E80.97355
G1 X110.594 Y152.315 E81.00865
G1 X110.073 Y151.841 E81.04379
G1 X109.609 Y151.311 E81.07893
G1 X109.209 Y150.732 E81.11404
G1 X108.877 Y150.111 E81.14917
G1 X108.617 Y149.457 E81.18428
G1 X108.433 Y148.777 E81.21943
G1 X108.327 Y148.081 E81.25455
G1 X108.3 Y147.5 E81.28357
G1 X108.3 Y146.7 E81.32348
G1 X88.7 Y146.7 E82.30133
G1 X88.7 Y147.5 E82.34124
G1 X88.66 Y148.203 E82.37637
G1 X88.541 Y148.897 E82.4115
G1 X88.343 Y149.572 E82.4466
G1 X88.071 Y150.221 E82.4817
G1 X87.726 Y150.835 E82.51684
G1 X87.315 Y151.406 E82.55194
G1 X86.841 Y151.927 E82.58708
G1 X86.311 Y152.391 E82.62222
G1 X85.732 Y152.791 E82.65733
G1 X85.111 Y153.123 E82.69246
G1 X84.457 Y153.383 E82.72758
G1 X83.777 Y153.567 E82.76272
G1 X83.081 Y153.673 E82.79785
G1 X82.5 Y153.7 E82.82686
G1 X72.5 Y153.7 E83.32577
G1 X71.797 Y153.66 E83.3609
G1 X71.103 Y153.541 E83.39602
G1 X70.428 Y153.343 E83.43112
G1 X69.779 Y153.071 E83.46623
G1 X69.165 Y152.726 E83.50136
G1 X68.594 Y152.315 E83.53646
G1 X68.073 Y151.841 E83.5716
G1 X67.609 Y151.311 E83.60675
G1 X67.209 Y150.732 E83.64186
G1 X66.877 Y150.111 E83.67699
G1 X66.617 Y149.457 E83.7121
G1 X66.433 Y148.777 E83.74725
G1 X66.327 Y148.081 E83.78237
G1 X66.3 Y147.5 E83.81139
G1 X66.3 Y72.5 E87.55315
G1 X66.34 Y71.797 E87.58828
G1 X66.459 Y71.103 E87.62341
G1 X66.657 Y70.428 E87.65851
G1 X66.929 Y69.779 E87.69361
G1 X67.274 Y69.165 E87.72875
G1 X67.685 Y68.594 E87.76385
G1 X68.159 Y68.073 E87.79899
G0 F3600 X68.553 Y68.251
G1 F1800 X69.078 Y67.817 E87.83297
G1 X69.65 Y67.448 E87.86693
G1 X70.262 Y67.149 E87.90091
G1 X70.904 Y66.924 E87.93485
G1 X71.569 Y66.775 E87.96885
G1 X72.5 Y66.7 E88.01545
G1 X147.5 Y66.7 E91.75722
G1 X148.18 Y66.74 E91.7912
G1 X148.85 Y66.859 E91.82515
G1 X149.502 Y67.056 E91.85913
G1 X150.126 Y67.328 E91.89309
G1 X150.714 Y67.672 E91.92708
G1 X151.258 Y68.082 E91.96106
G1 X151.749 Y68.553 E91.99501
G1 X152.183 Y69.078 E92.02899
G1 X152.552 Y69.65 E92.06295
G1 X152.851 Y70.262 E92.09693
G1 X153.076 Y70.904 E92.13087
G1 X153.225 Y71.569 E92.16487
G1 X153.3 Y72.5 E92.21147
G1 X153.3 Y147.5 E95.95324
G1 X153.26 Y148.18 E95.98722
G1 X153.141 Y148.85 E96.02117
G1 X152.944 Y149.502 E96.05515
G1 X152.672 Y150.126 E96.08911
G1 X152.328 Y150.714 E96.1231
G1 X151.918 Y151.258 E96.15708
G1 X151.447 Y151.749 E96.19103
G1 X150.922 Y152.183 E96.22501
G1 X150.35 Y152.552 E96.25897
G1 X149.738 Y152.851 E96.29295
G1 X149.096 Y153.076 E96.32689
G1 X148.431 Y153.225 E96.36089
G1 X147.5 Y153.3 E96.40749
G1 X114.5 Y153.3 E98.05387
G1 X113.82 Y153.26 E98.08785
G1 X113.15 Y153.141 E98.1218
G1 X112.498 Y152.944 E98.15578
G1 X111.874 Y152.672 E98.18974
G1 X111.286 Y152.328 E98.22373
G1 X110.742 Y151.918 E98.25771
G1 X110.251 Y151.447 E98.29166
G1 X109.817 Y150.922 E98.32564
G1 X109.448 Y150.35 E98.3596
G1 X109.149 Y149.738 E98.39358
G1 X108.924 Y149.096 E98.42752
G1 X108.775 Y148.431 E98.46152
G1 X108.7 Y147.5 E98.50812
G1 X108.7 Y146.3 E98.56799
