;FLAVOR:Marlin
;TIME:10494
;Filament used: 6.24m
;Layer height: 0.1
;MINX:64.7
;MINY:64.7
;MINZ:0.3
;MAXX:155.3
;MAXY:155.3
;MAXZ:10
;Generated with Cura_SteamEngine 4.8.0
M140 S60
M105
M190 S60
M104 S200
M105
M109 S200
M82 ;absolute extrusion mode
G28 ;Home
G1 Z15.0 F6000 ;Move the platform down 15mm
;Prime the extruder
G92 E0
G1 F200 E3
G92 E0
G92 E0
G92 E0
G1 F1500 E-6.5
;LAYER_COUNT:98
;LAYER:0
M107
G0 F3600 X67.123 Y66.849 Z0.3
;TYPE:SKIRT
G1 F1500 E0
G1 F1800 X67.722 Y66.334 E0.03941
G1 X68.37 Y65.883 E0.0788
G1 X69.061 Y65.499 E0.11824
G1 X69.786 Y65.187 E0.15762
G1 X70.539 Y64.95 E0.197
G1 X71.313 Y64.791 E0.23642
G1 X72.098 Y64.71 E0.27579
G1 X72.5 Y64.7 E0.29586
G1 X147.5 Y64.7 E4.03762
G1 X148.289 Y64.74 E4.07703
G1 X149.069 Y64.859 E4.1164
G1 X149.834 Y65.057 E4.15582
G1 X150.574 Y65.331 E4.19519
G1 X151.283 Y65.679 E4.23459
G1 X151.954 Y66.097 E4.27404
G1 X152.578 Y66.58 E4.3134
G1 X153.151 Y67.123 E4.35279
G1 X153.666 Y67.722 E4.3922
G1 X154.117 Y68.37 E4.43159
G1 X154.501 Y69.061 E4.47103
G1 X154.813 Y69.786 E4.5104
G1 X155.05 Y70.539 E4.54979
G1 X155.209 Y71.313 E4.58921
G1 X155.29 Y72.098 E4.62858
G1 X155.3 Y72.5 E4.64864
G1 X155.3 Y147.5 E8.39041
G1 X155.26 Y148.289 E8.42982
G1 X155.141 Y149.069 E8.46919
G1 X154.943 Y149.834 E8.50861
G1 X154.669 Y150.574 E8.54798
G1 X154.321 Y151.283 E8.58738
G1 X153.903 Y151.954 E8.62682
G1 X153.42 Y152.578 E8.66619
G1 X152.877 Y153.151 E8.70557
G1 X152.278 Y153.666 E8.74499
G1 X151.63 Y154.117 E8.78437
G1 X150.939 Y154.501 E8.82381
G1 X150.214 Y154.813 E8.86319
G1 X149.461 Y155.05 E8.90257
G1 X148.687 Y155.209 E8.942
G1 X147.902 Y155.29 E8.98137
G1 X147.5 Y155.3 E9.00143
G1 X102.5 Y155.3 E11.24649
G1 X101.711 Y155.26 E11.2859
G1 X100.931 Y155.141 E11.32527
G1 X100.166 Y154.943 E11.36469
G1 X99.426 Y154.669 E11.40406
G1 X98.717 Y154.321 E11.44346
G1 X98.046 Y153.903 E11.4829
G1 X97.497 Y153.478 E11.51754
G1 X97.278 Y153.666 E11.53194
G1 X96.63 Y154.117 E11.57133
G1 X95.939 Y154.501 E11.61077
G1 X95.214 Y154.813 E11.65015
G1 X94.461 Y155.05 E11.68953
G1 X93.687 Y155.209 E11.72895
G1 X92.902 Y155.29 E11.76832
G1 X92.5 Y155.3 E11.78839
G1 X72.5 Y155.3 E12.78619
G1 X71.711 Y155.26 E12.8256
G1 X70.931 Y155.141 E12.86497
G1 X70.166 Y154.943 E12.90439
G1 X69.426 Y154.669 E12.94376
G1 X68.717 Y154.321 E12.98316
G1 X68.046 Y153.903 E13.0226
G1 X67.422 Y153.42 E13.06197
G1 X66.849 Y152.877 E13.10136
G1 X66.334 Y152.278 E13.14077
G1 X65.883 Y151.63 E13.18016
G1 X65.499 Y150.939 E13.21959
G1 X65.187 Y150.214 E13.25897
G1 X64.95 Y149.461 E13.29836
G1 X64.791 Y148.687 E13.33778
G1 X64.71 Y147.902 E13.37715
G1 X64.7 Y147.5 E13.39721
G1 X64.7 Y72.5 E17.13898
G1 X64.74 Y71.711 E17.17839
G1 X64.859 Y70.931 E17.21776
G1 X65.057 Y70.166 E17.25718
G1 X65.331 Y69.426 E17.29655
G1 X65.679 Y68.717 E17.33595
G1 X66.097 Y68.046 E17.37539
G1 X66.58 Y67.422 E17.41476
G1 X67.123 Y66.849 E17.45414
G0 F3600 X67.516 Y67.03
G1 F1800 X68.111 Y66.542 E17.49254
G1 X68.753 Y66.119 E17.53089
G1 X69.436 Y65.764 E17.56929
G1 X70.151 Y65.483 E17.60762
G1 X70.893 Y65.277 E17.64604
G1 X71.651 Y65.149 E17.68439
G1 X72.5 Y65.1 E17.72682
G1 X147.5 Y65.1 E21.46859
G1 X148.268 Y65.14 E21.50695
G1 X149.028 Y65.259 E21.54533
G1 X149.771 Y65.457 E21.58369
G1 X150.49 Y65.731 E21.62208
G1 X151.176 Y66.078 E21.66044
G1 X151.823 Y66.494 E21.69881
G1 X152.423 Y66.975 E21.73718
G1 X152.97 Y67.516 E21.77556
G1 X153.458 Y68.111 E21.81395
G1 X153.881 Y68.753 E21.85231
G1 X154.236 Y69.436 E21.89071
G1 X154.517 Y70.151 E21.92904
G1 X154.723 Y70.893 E21.96746
G1 X154.851 Y71.651 E22.00581
G1 X154.9 Y72.5 E22.04824
G1 X154.9 Y147.5 E25.79
G1 X154.86 Y148.268 E25.82837
G1 X154.741 Y149.028 E25.86675
G1 X154.543 Y149.771 E25.90511
G1 X154.269 Y150.49 E25.9435
G1 X153.922 Y151.176 E25.98185
G1 X153.506 Y151.823 E26.02023
G1 X153.025 Y152.423 E26.05859
G1 X152.484 Y152.97 E26.09697
G1 X151.889 Y153.458 E26.13537
G1 X151.247 Y153.881 E26.17372
G1 X150.564 Y154.236 E26.21213
G1 X149.849 Y154.517 E26.25045
G1 X149.107 Y154.723 E26.28887
G1 X148.349 Y154.851 E26.32722
G1 X147.5 Y154.9 E26.36965
G1 X102.5 Y154.9 E28.61471
G1 X101.732 Y154.86 E28.65308
G1 X100.972 Y154.741 E28.69146
G1 X100.229 Y154.543 E28.72982
G1 X99.51 Y154.269 E28.76821
G1 X98.824 Y153.922 E28.80656
G1 X98.177 Y153.506 E28.84494
G1 X97.577 Y153.025 E28.8833
G1 X97.502 Y152.951 E28.88856
G1 X97.484 Y152.97 E28.88986
G1 X96.889 Y153.458 E28.92826
G1 X96.247 Y153.881 E28.96661
G1 X95.564 Y154.236 E29.00502
G1 X94.849 Y154.517 E29.04334
G1 X94.107 Y154.723 E29.08176
G1 X93.349 Y154.851 E29.12011
G1 X92.5 Y154.9 E29.16254
G1 X72.5 Y154.9 E30.16035
G1 X71.732 Y154.86 E30.19871
G1 X70.972 Y154.741 E30.23709
G1 X70.229 Y154.543 E30.27545
G1 X69.51 Y154.269 E30.31384
G1 X68.824 Y153.922 E30.35219
G1 X68.177 Y153.506 E30.39057
G1 X67.577 Y153.025 E30.42894
G1 X67.03 Y152.484 E30.46732
G1 X66.542 Y151.889 E30.50571
G1 X66.119 Y151.247 E30.54407
G1 X65.764 Y150.564 E30.58247
G1 X65.483 Y149.849 E30.6208
G1 X65.277 Y149.107 E30.65922
G1 X65.149 Y148.349 E30.69757
G1 X65.1 Y147.5 E30.74
G1 X65.1 Y72.5 E34.48176
G1 X65.14 Y71.732 E34.52013
G1 X65.259 Y70.972 E34.55851
G1 X65.457 Y70.229 E34.59687
G1 X65.731 Y69.51 E34.63526
G1 X66.078 Y68.824 E34.67361
G1 X66.494 Y68.177 E34.71199
G1 X66.975 Y67.577 E34.75035
G1 X67.516 Y67.03 E34.78873
G0 F3600 X67.908 Y67.216
G1 F1800 X68.498 Y66.757 E34.82603
G1 X69.134 Y66.362 E34.86338
G1 X69.808 Y66.038 E34.90069
G1 X70.513 Y65.788 E34.93801
G1 X71.241 Y65.614 E34.97535
G1 X71.983 Y65.519 E35.01267
G1 X72.5 Y65.5 E35.03848
G1 X147.5 Y65.5 E38.78025
G1 X148.247 Y65.54 E38.81757
G1 X148.985 Y65.659 E38.85486
G1 X149.707 Y65.857 E38.89221
G1 X150.403 Y66.13 E38.92951
G1 X151.066 Y66.477 E38.96685
G1 X151.689 Y66.892 E39.00419
G1 X152.263 Y67.371 E39.04149
G1 X152.784 Y67.908 E39.07882
G1 X153.243 Y68.498 E39.11611
G1 X153.638 Y69.134 E39.15347
G1 X153.962 Y69.808 E39.19077
G1 X154.212 Y70.513 E39.22809
G1 X154.386 Y71.241 E39.26544
G1 X154.481 Y71.983 E39.30276
G1 X154.5 Y72.5 E39.32857
G1 X154.5 Y147.5 E43.07033
G1 X154.46 Y148.247 E43.10765
G1 X154.341 Y148.985 E43.14495
G1 X154.143 Y149.707 E43.1823
G1 X153.87 Y150.403 E43.2196
G1 X153.523 Y151.066 E43.25693
G1 X153.108 Y151.689 E43.29428
G1 X152.629 Y152.263 E43.33158
G1 X152.092 Y152.784 E43.3689
G1 X151.502 Y153.243 E43.4062
G1 X150.866 Y153.638 E43.44355
G1 X150.192 Y153.962 E43.48086
G1 X149.487 Y154.212 E43.51818
G1 X148.759 Y154.386 E43.55552
G1 X148.017 Y154.481 E43.59284
G1 X147.5 Y154.5 E43.61865
G1 X102.5 Y154.5 E45.86371
G1 X101.753 Y154.46 E45.90103
G1 X101.015 Y154.341 E45.93833
G1 X100.293 Y154.143 E45.97568
G1 X99.597 Y153.87 E46.01298
G1 X98.934 Y153.523 E46.05031
G1 X98.311 Y153.108 E46.08766
G1 X97.737 Y152.629 E46.12496
G1 X97.502 Y152.386 E46.14182
G1 X97.092 Y152.784 E46.17033
G1 X96.502 Y153.243 E46.20762
G1 X95.866 Y153.638 E46.24497
G1 X95.192 Y153.962 E46.28228
G1 X94.487 Y154.212 E46.3196
G1 X93.759 Y154.386 E46.35695
G1 X93.017 Y154.481 E46.39427
G1 X92.5 Y154.5 E46.42008
G1 X72.5 Y154.5 E47.41788
G1 X71.753 Y154.46 E47.4552
G1 X71.015 Y154.341 E47.4925
G1 X70.293 Y154.143 E47.52985
G1 X69.597 Y153.87 E47.56715
G1 X68.934 Y153.523 E47.60448
G1 X68.311 Y153.108 E47.64183
G1 X67.737 Y152.629 E47.67912
G1 X67.216 Y152.092 E47.71645
G1 X66.757 Y151.502 E47.75375
G1 X66.362 Y150.866 E47.7911
G1 X66.038 Y150.192 E47.82841
G1 X65.788 Y149.487 E47.86573
G1 X65.614 Y148.759 E47.90307
G1 X65.519 Y148.017 E47.94039
G1 X65.5 Y147.5 E47.9662
G1 X65.5 Y72.5 E51.70797
G1 X65.54 Y71.753 E51.74529
G1 X65.659 Y71.015 E51.78258
G1 X65.857 Y70.293 E51.81993
G1 X66.13 Y69.597 E51.85723
G1 X66.477 Y68.934 E51.89457
G1 X66.892 Y68.311 E51.93191
G1 X67.371 Y67.737 E51.96921
G1 X67.908 Y67.216 E52.00654
G0 F3600 X67.765 Y67.902
G1 F1800 X68.299 Y67.409 E52.0428
G1 X68.884 Y66.979 E52.07902
G1 X69.513 Y66.615 E52.11528
G1 X70.178 Y66.322 E52.15153
G1 X70.871 Y66.104 E52.18777
G1 X71.583 Y65.964 E52.22398
G1 X72.5 Y65.9 E52.26984
G1 X147.5 Y65.9 E56.0116
G1 X148.225 Y65.94 E56.04783
G1 X148.942 Y66.059 E56.08409
G1 X149.641 Y66.257 E56.12033
G1 X150.314 Y66.53 E56.15657
G1 X150.953 Y66.875 E56.1928
G1 X151.55 Y67.289 E56.22904
G1 X152.098 Y67.765 E56.26526
G1 X152.591 Y68.299 E56.30151
G1 X153.021 Y68.884 E56.33774
G1 X153.385 Y69.513 E56.37399
G1 X153.678 Y70.178 E56.41025
G1 X153.896 Y70.871 E56.44649
G1 X154.036 Y71.583 E56.48269
G1 X154.1 Y72.5 E56.52855
G1 X154.1 Y147.5 E60.27032
G1 X154.06 Y148.225 E60.30655
G1 X153.941 Y148.942 E60.34281
G1 X153.743 Y149.641 E60.37905
G1 X153.47 Y150.314 E60.41528
G1 X153.125 Y150.953 E60.45151
G1 X152.711 Y151.55 E60.48776
G1 X152.235 Y152.098 E60.52397
G1 X151.701 Y152.591 E60.56023
G1 X151.116 Y153.021 E60.59645
G1 X150.487 Y153.385 E60.63271
G1 X149.822 Y153.678 E60.66897
G1 X149.129 Y153.896 E60.70521
G1 X148.417 Y154.036 E60.74141
G1 X147.5 Y154.1 E60.78727
G1 X102.5 Y154.1 E63.03233
G1 X101.775 Y154.06 E63.06856
G1 X101.058 Y153.941 E63.10482
G1 X100.359 Y153.743 E63.14106
G1 X99.686 Y153.47 E63.1773
G1 X99.047 Y153.125 E63.21353
G1 X98.45 Y152.711 E63.24977
G1 X97.902 Y152.235 E63.28598
G1 X97.497 Y151.796 E63.31578
G1 X97.235 Y152.098 E63.33573
G1 X96.701 Y152.591 E63.37199
G1 X96.116 Y153.021 E63.40821
G1 X95.487 Y153.385 E63.44447
G1 X94.822 Y153.678 E63.48072
G1 X94.129 Y153.896 E63.51697
G1 X93.417 Y154.036 E63.55317
G1 X92.5 Y154.1 E63.59903
G1 X72.5 Y154.1 E64.59683
G1 X71.775 Y154.06 E64.63306
G1 X71.058 Y153.941 E64.66932
G1 X70.359 Y153.743 E64.70556
G1 X69.686 Y153.47 E64.7418
G1 X69.047 Y153.125 E64.77803
G1 X68.45 Y152.711 E64.81427
G1 X67.902 Y152.235 E64.85049
G1 X67.409 Y151.701 E64.88675
G1 X66.979 Y151.116 E64.92297
G1 X66.615 Y150.487 E64.95922
G1 X66.322 Y149.822 E64.99548
G1 X66.104 Y149.129 E65.03172
G1 X65.964 Y148.417 E65.06792
G1 X65.9 Y147.5 E65.11379
G1 X65.9 Y72.5 E68.85555
G1 X65.94 Y71.775 E68.89178
G1 X66.059 Y71.058 E68.92804
G1 X66.257 Y70.359 E68.96428
G1 X66.53 Y69.686 E69.00052
G1 X66.875 Y69.047 E69.03674
G1 X67.289 Y68.45 E69.07299
G1 X67.765 Y67.902 E69.1092
G0 F3600 X68.159 Y68.073
G1 F1800 X68.689 Y67.609 E69.14435
G1 X69.268 Y67.209 E69.17946
G1 X69.889 Y66.877 E69.21459
G1 X70.543 Y66.617 E69.2497
G1 X71.223 Y66.433 E69.28485
G1 X71.919 Y66.327 E69.31997
G1 X72.5 Y66.3 E69.34899
G1 X147.5 Y66.3 E73.09075
G1 X148.203 Y66.34 E73.12588
G1 X148.897 Y66.459 E73.16101
G1 X149.572 Y66.657 E73.19611
G1 X150.221 Y66.929 E73.23121
G1 X150.835 Y67.274 E73.26635
G1 X151.406 Y67.685 E73.30145
G1 X151.927 Y68.159 E73.33659
G1 X152.391 Y68.689 E73.37173
G1 X152.791 Y69.268 E73.40684
G1 X153.123 Y69.889 E73.44197
G1 X153.383 Y70.543 E73.47709
G1 X153.567 Y71.223 E73.51223
G1 X153.673 Y71.919 E73.54736
G1 X153.7 Y72.5 E73.57637
G1 X153.7 Y147.5 E77.31814
G1 X153.66 Y148.203 E77.35327
G1 X153.541 Y148.897 E77.3884
G1 X153.343 Y149.572 E77.42349
G1 X153.071 Y150.221 E77.4586
G1 X152.726 Y150.835 E77.49374
G1 X152.315 Y151.406 E77.52884
G1 X151.841 Y151.927 E77.56398
G1 X151.311 Y152.391 E77.59912
G1 X150.732 Y152.791 E77.63423
G1 X150.111 Y153.123 E77.66936
G1 X149.457 Y153.383 E77.70447
G1 X148.777 Y153.567 E77.73962
G1 X148.081 Y153.673 E77.77474
G1 X147.5 Y153.7 E77.80376
G1 X102.5 Y153.7 E80.04882
G1 X101.797 Y153.66 E80.08395
G1 X101.103 Y153.541 E80.11908
G1 X100.428 Y153.343 E80.15417
G1 X99.779 Y153.071 E80.18928
G1 X99.165 Y152.726 E80.22442
G1 X98.594 Y152.315 E80.25952
G1 X98.073 Y151.841 E80.29466
G1 X97.609 Y151.311 E80.3298
G1 X97.499 Y151.151 E80.33949
G1 X97.315 Y151.406 E80.35517
G1 X96.841 Y151.927 E80.39031
G1 X96.311 Y152.391 E80.42546
G1 X95.732 Y152.791 E80.46057
G1 X95.111 Y153.123 E80.4957
G1 X94.457 Y153.383 E80.53081
G1 X93.777 Y153.567 E80.56596
G1 X93.081 Y153.673 E80.60108
G1 X92.5 Y153.7 E80.6301
G1 X72.5 Y153.7 E81.6279
G1 X71.797 Y153.66 E81.66303
G1 X71.103 Y153.541 E81.69816
G1 X70.428 Y153.343 E81.73326
G1 X69.779 Y153.071 E81.76836
G1 X69.165 Y152.726 E81.8035
G1 X68.594 Y152.315 E81.8386
G1 X68.073 Y151.841 E81.87374
G1 X67.609 Y151.311 E81.90888
G1 X67.209 Y150.732 E81.94399
G1 X66.877 Y150.111 E81.97912
G1 X66.617 Y149.457 E82.01424
G1 X66.433 Y148.777 E82.04938
G1 X66.327 Y148.081 E82.08451
G1 X66.3 Y147.5 E82.11352
G1 X66.3 Y72.5 E85.85529
G1 X66.34 Y71.797 E85.89042
G1 X66.459 Y71.103 E85.92555
G1 X66.657 Y70.428 E85.96064
G1 X66.929 Y69.779 E85.99575
G1 X67.274 Y69.165 E86.03089
G1 X67.685 Y68.594 E86.06599
G1 X68.159 Y68.073 E86.10113
G0 F3600 X68.553 Y68.251
G1 F1800 X69.078 Y67.817 E86.13511
G1 X69.65 Y67.448 E86.16907
G1 X70.262 Y67.149 E86.20305
G1 X70.904 Y66.924 E86.23699
G1 X71.569 Y66.775 E86.27099
G1 X72.5 Y66.7 E86.31759
G1 X147.5 Y66.7 E90.05935
G1 X148.18 Y66.74 E90.09334
G1 X148.85 Y66.859 E90.12729
G1 X149.502 Y67.056 E90.16127
G1 X150.126 Y67.328 E90.19523
G1 X150.714 Y67.672 E90.22922
G1 X151.258 Y68.082 E90.2632
G1 X151.749 Y68.553 E90.29715
G1 X152.183 Y69.078 E90.33113
G1 X152.552 Y69.65 E90.36509
G1 X152.851 Y70.262 E90.39907
G1 X153.076 Y70.904 E90.43301
G1 X153.225 Y71.569 E90.46701
G1 X153.3 Y72.5 E90.51361
G1 X153.3 Y147.5 E94.25537
G1 X153.26 Y148.18 E94.28936
G1 X153.141 Y148.85 E94.32331
G1 X152.944 Y149.502 E94.35729
G1 X152.672 Y150.126 E94.39125
G1 X152.328 Y150.714 E94.42524
G1 X151.918 Y151.258 E94.45922
G1 X151.447 Y151.749 E94.49317
G1 X150.922 Y152.183 E94.52715
G1 X150.35 Y152.552 E94.56111
G1 X149.738 Y152.851 E94.59509
G1 X149.096 Y153.076 E94.62903
G1 X148.431 Y153.225 E94.66303
G1 X147.5 Y153.3 E94.70963
G1 X102.5 Y153.3 E96.95469
G1 X101.82 Y153.26 E96.98867
G1 X101.15 Y153.141 E97.02262
G1 X100.498 Y152.944 E97.0566
G1 X99.874 Y152.672 E97.09056
G1 X99.286 Y152.328 E97.12455
G1 X98.742 Y151.918 E97.15853
G1 X98.251 Y151.447 E97.19248
G1 X97.817 Y150.922 E97.22646
G1 X97.497 Y150.426 E97.25591
G1 X97.328 Y150.714 E97.27257
G1 X96.918 Y151.258 E97.30656
G1 X96.447 Y151.749 E97.3405
G1 X95.922 Y152.183 E97.37448
G1 X95.35 Y152.552 E97.40844
G1 X94.738 Y152.851 E97.44242
G1 X94.096 Y153.076 E97.47636
G1 X93.431 Y153.225 E97.51036
G1 X92.5 Y153.3 E97.55696
G1 X72.5 Y153.3 E98.55477
G1 X71.82 Y153.26 E98.58875
G1 X71.15 Y153.141 E98.6227
G1 X70.498 Y152.944 E98.65668
G1 X69.874 Y152.672 E98.69064
G1 X69.286 Y152.328 E98.72463
G1 X68.742 Y151.918 E98.75861
G1 X68.251 Y151.447 E98.79256
G1 X67.817 Y150.922 E98.82654
G1 X67.448 Y150.35 E98.8605
G1 X67.149 Y149.738 E98.89448
G1 X66.924 Y149.096 E98.92842
G1 X66.775 Y148.431 E98.96242
G1 X66.7 Y147.5 E99.00902
G1 X66.7 Y72.5 E102.75079
G1 X66.74 Y71.82 E102.78477
G1 X66.859 Y71.15 E102.81872
G1 X67.056 Y70.498 E102.8527
G1 X67.328 Y69.874 E102.88666
G1 X67.672 Y69.286 E102.92065
G1 X68.082 Y68.742 E102.95463
G1 X68.553 Y68.251 E102.98858
G0 F3600 X68.945 Y68.435
G1 F1800 X69.465 Y68.034 E103.02134
G1 X70.029 Y67.698 E103.05409
G1 X70.631 Y67.434 E103.08689
G1 X71.26 Y67.244 E103.11967
G1 X71.907 Y67.133 E103.15242
G1 X72.5 Y67.1 E103.18205
G1 X147.5 Y67.1 E106.92381
G1 X148.156 Y67.14 E106.9566
G1 X148.802 Y67.259 E106.98937
G1 X149.429 Y67.456 E107.02216
G1 X150.027 Y67.728 E107.05494
G1 X150.588 Y68.07 E107.08772
G1 X151.103 Y68.478 E107.1205
G1 X151.565 Y68.945 E107.15327
G1 X151.966 Y69.465 E107.18603
G1 X152.302 Y70.029 E107.21878
G1 X152.566 Y70.631 E107.25158
G1 X152.756 Y71.26 E107.28436
G1 X152.867 Y71.907 E107.31711
G1 X152.9 Y72.5 E107.34674
G1 X152.9 Y147.5 E111.08851
G1 X152.86 Y148.156 E111.1213
G1 X152.741 Y148.802 E111.15407
G1 X152.544 Y149.429 E111.18686
G1 X152.272 Y150.027 E111.21963
G1 X151.93 Y150.588 E111.25241
G1 X151.522 Y151.103 E111.28519
G1 X151.055 Y151.565 E111.31796
G1 X150.535 Y151.966 E111.35072
G1 X149.971 Y152.302 E111.38348
G1 X149.369 Y152.566 E111.41627
G1 X148.74 Y152.756 E111.44905
G1 X148.093 Y152.867 E111.4818
G1 X147.5 Y152.9 E111.51143
G1 X102.5 Y152.9 E113.75649
G1 X101.844 Y152.86 E113.78928
G1 X101.198 Y152.741 E113.82205
G1 X100.571 Y152.544 E113.85484
G1 X99.973 Y152.272 E113.88762
G1 X99.412 Y151.93 E113.9204
G1 X98.897 Y151.522 E113.95318
G1 X98.435 Y151.055 E113.98595
G1 X98.034 Y150.535 E114.01871
G1 X97.698 Y149.971 E114.05146
G1 X97.501 Y149.523 E114.07588
G1 X97.272 Y150.027 E114.1035
G1 X96.93 Y150.588 E114.13628
